X:235
T:Reel 235
M:4/4
K:Dmaj
L:1/8
A,|D2FA dAFD|E2BG cEFE|D2FA dAFA|GA,EG FDDC|D2FA d2FA| (3GFG FD EA,B,C|D2FA dAFA|BGEG FDD|c|d2fd dced|cAeA fAeA|d2fd d2ed|cABc d2Bc|dAAd dfed|cded cAAd|dcec dABd|cABc dBAd|
